X:1
T:Puer natus 2
T:André Vierendeels 
T:(28/02/18)
T:Early melody
T:Puer natus 2
T:ad voces aequales
T:©
T:©
T:©
C:André Vierendeels
Z:©
%%score [ 1 2 3 ]
L:1/8
Q:1/4=120
M:3/4
K:C
V:1 treble-8 nm="Tenor 1" snm="T 1"
V:2 treble-8 nm="Tenor 2" snm="T 2"
V:3 bass nm="Bass" snm="B"
V:1
 z2 z2 A2 | A4 A2 | B4 B2 | c4 A2 | !fermata!G4 A2 | c4 d2 | c4 B2 | !fermata!c4 c2 | c4 c2 | %9
w: Pu-|er na-|tus in|Beth- le-|hem, in|Beth- *|* le-|hem, un-|de gau-|
w: Hic|ia- cet|in prae-|se- pi-|o, prae-|se- *|* pi-|o, qui|re- get|
 B4 A2 | A4 ^G2 | !fermata!A4 A2 | G4 A2 | B4 B2 | c4 A2 | A4 ^G2 | A4 d2 | c4 c2 | d4 A2 | %19
w: det Je-|ru- sa-|lem, Al-|le- lu-|ia, Al-|le- *|* lu-|ia, Al-|le- li-|ia, Al-|
w: si- ne|ter- mi-|no, _|_ _|||||||
 A3 B cd | e3 d B2 | !fermata!^c6 |] %22
w: le- * * *|* * lu-|ia.|
w: |||
V:2
 z2 z2 E2 | C4 E2 | G4 G2 | E4 ^F2 | !fermata!D4 C2 | E4 G2 | E2 G4 | !fermata!A4 E2 | E4 E2 | %9
w: Pu-|er na-|tus in|Beth- le-|hem, in|Beth- *|* le-|hem, un-|de gau-|
w: Ma-|gi de|Sa- ba|ve- ni-|unt, ve-||* ni-|unt, au-|rum, thus,|
 D4 F2 | E4 E2 | !fermata!E4 E2 | D4 F2 | D4 D2 | E4 F2 | E2 E4 | E4 B2 | A4 G2 | G4 C2 | C4 E2 | %20
w: det Je-|ru- sa-|lem, Al-|le- lu-|ia, Al-|le- *|* lu-|ia, Al-|le- lu-|ia, Al-|le- *|
w: myr- rham|of- fe-|runt, _|_ _||||||||
 G6 | !fermata!E6 |] %22
w: lu-|ia.|
w: ||
V:3
 z2 z2 A,,2 | A,,4 C,2 | E,4 D,2 | C,4 D,2 | !fermata!G,,4 F,,2 | C,4 B,,2 | C,4 G,,2 | %7
w: Pu-|er na-|tus in|Beth- le-|hem, in|Beth- *|* le-|
w: In|hoc na-|ta- li|gau- di-|o, na-|ta- li|gau- di-|
 !fermata!A,,4 A,,2 | A,,4 C,2 | G,,4 F,,2 | A,,4 B,,2 | !fermata!A,,4 C,2 | G,,4 F,,2 | %13
w: hem, un-|de gau-|det Je-|ru- sa-|lem, Al-|le- lu-|
w: o, be-|ne- di-|ca- mus|Do- mi-|no, _|_ _|
 G,,4 G,,2 | C,4 F,,2 | A,,2 E,2 B,,2 | C,4 G,,2 | F,,4 C,2 | G,,2 B,,2 A,,2 | A,,6 | E,6 | %21
w: ia, Al-|le- *|* * lu-|ia, Al-|le- lu-|ia, Al- le-|lu-||
w: ||||||||
 !fermata!A,,6 |] %22
w: ia.|
w: |

